X:345
T: ES GIENGEN ZWEI LIEBCHEN
N: E0194B
O: Europa, Mitteleuropa, Deutschland, Dillkreis
R: erzaehlendes Volks - Lied, Sage, Familien - Geschichte
M: 3/4
L: 1/8
K: G
D2 | G3AB2 | A2G2
A2 | B3cdB | A2z2
GB | dcB2Ac | BAG2
Ac | B2d2A2 | B4

